X: 38096
T: Split-Second, The
R: jig
M: 6/8
K: Eminor
|:~E3 ~e2d|BAB ded|~E3 ~e2d|BAF (3ABA F|
~E3 ~e2d|BAB d2f|g2F Fff|edB BAF:|
|:B2B ded|BAB d2B|BGB ded|BAF (3ABA F|
E2B ded|BAB d2f|g2B Bff|edB BAF:|

